svg/icon/coqui.svg

<svg xmlns="http://www.w3.org/2000/svg" xmlns:xlink="http://www.w3.org/1999/xlink" width="32" height="32" viewBox="0 0 32 32"><defs><linearGradient id="coqui-c" x1="50%" x2="50%" y1="0%" y2="100%"><stop offset="0%" stop-color="#FFF" stop-opacity=".5"/><stop offset="100%" stop-opacity=".5"/></linearGradient><circle id="coqui-b" cx="16" cy="15" r="15"/><filter id="coqui-a" width="111.7%" height="111.7%" x="-5.8%" y="-4.2%" filterUnits="objectBoundingBox"><feOffset dy=".5" in="SourceAlpha" result="shadowOffsetOuter1"/><feGaussianBlur in="shadowOffsetOuter1" result="shadowBlurOuter1" stdDeviation=".5"/><feComposite in="shadowBlurOuter1" in2="SourceAlpha" operator="out" result="shadowBlurOuter1"/><feColorMatrix in="shadowBlurOuter1" values="0 0 0 0 0 0 0 0 0 0 0 0 0 0 0 0 0 0 0.199473505 0"/></filter><path id="coqui-e" d="M25.8202355,13.7150262 C25.0328889,13.7523545 24.242842,13.7976326 23.4563718,13.7695117 C22.7501759,13.7442861 22.0470829,13.6271516 21.3433268,13.5445215 C21.2744932,13.5364293 21.200638,13.4981518 21.1459216,13.4533009 C19.9807718,12.498166 18.8356136,11.5207718 17.8323389,10.3900301 C17.4662132,9.97742536 17.1697028,9.53109933 17.0041563,8.98883029 C16.7809327,8.25761783 15.8437439,7.97726395 15.1498414,8.40019156 C14.4215458,8.84407334 14.2973563,9.87716337 14.9105581,10.4685786 C15.0166983,10.5709526 15.1591503,10.663075 15.2999441,10.6969623 C15.8305267,10.8247756 16.2399753,11.1412713 16.6270637,11.4989396 C17.3212031,12.140379 17.9426953,12.849783 18.5469909,13.5746357 C18.7199277,13.7820653 18.6321684,14.0220058 18.3669482,14.052476 C17.9561967,14.0996525 17.5438346,14.1432457 17.1310224,14.1600233 C16.3528899,14.1916325 15.5737153,14.2231231 14.7953933,14.2149835 C14.3601498,14.2104509 13.922964,14.1427236 13.4921262,14.0706062 C13.2935841,14.037407 13.0938814,13.9493901 12.9194287,13.8448091 C12.3402647,13.4975111 11.7404695,13.7345802 11.4063209,14.0771796 C10.9905005,14.5035481 10.9098236,15.158609 11.2048891,15.6645701 C11.4827106,16.1410103 12.0305134,16.4186826 12.5233156,16.3155018 C12.6650333,16.2858147 12.8047139,16.2219081 12.9314142,16.1493161 C13.2604938,15.9607286 13.6194187,15.8727591 13.9885999,15.8500963 C14.5834208,15.8135748 15.1806578,15.7792603 15.7756682,15.7936174 C16.5334064,15.8118425 17.2899603,15.8791664 18.0469642,15.9262242 C18.1500962,15.9326315 18.2538914,15.9379234 18.3556496,15.9542976 C18.6395113,16.0000503 18.7218226,16.2266305 18.5340817,16.4497935 C18.3083946,16.7180685 18.0903346,16.9945068 17.8461482,17.2451025 C17.3332596,17.7714245 16.8109438,18.2888238 16.2813561,18.7982971 C16.0402963,19.0302167 15.7455861,19.186222 15.4176908,19.2644382 C14.7621845,19.4207757 14.4387423,20.0536484 14.5304573,20.6933792 C14.6217696,21.3302624 15.1905352,21.8077705 15.8326348,21.8085773 C16.4292086,21.8093129 16.8865991,21.4912985 17.045916,20.9207188 C17.2094728,20.3349278 17.5848126,19.8925885 17.9770174,19.4622332 C18.9442883,18.4009749 20.030964,17.4684553 21.1404263,16.5620632 C21.2021539,16.5116356 21.2868813,16.4725512 21.3653317,16.4622758 C21.926257,16.3887346 22.4867559,16.2981547 23.0504761,16.2634605 C23.6844275,16.2244236 24.3227847,16.2109208 24.9571624,16.2368821 C25.61968,16.2639588 26.2797105,16.3512401 26.9598984,16.4139602 C26.9479603,16.6444323 26.9452126,16.840139 26.9265475,17.0342557 C26.8053188,18.2947802 26.4843401,19.5013176 25.890964,20.6219974 C24.4269352,23.3868315 22.1689274,25.1180772 19.1137905,25.793404 C18.4284863,25.9448767 17.732144,25.9996945 17.030875,25.9982232 C16.2857855,25.9966807 15.5406249,26.0042745 14.7956065,25.9962536 C12.7312614,25.9740417 10.8420559,25.3869455 9.16089084,24.1815472 C7.1379738,22.73113 5.831888,20.7849795 5.26854671,18.356029 C5.14345714,17.8166077 5.06666479,17.2573712 5.04513356,16.7041861 C5.00420291,15.6531082 4.98257693,14.5986131 5.01744378,13.5477014 C5.16610164,9.06799573 8.20631598,5.45203822 12.2691808,4.34526453 C13.0860411,4.12274224 13.9193873,4.01042508 14.7660218,4.0072689 C15.6295212,4.00401781 16.493447,3.9907761 17.3564963,4.01097089 C19.4217415,4.05926275 21.2988194,4.68855208 22.9592586,5.92268817 C24.9438268,7.39771406 26.207016,9.35489927 26.7397777,11.7716285 C26.8675675,12.3514631 26.9126907,12.9496178 27,13.5687742 C26.5707256,13.6239005 26.196807,13.6971807 25.8202355,13.7150262 Z"/><filter id="coqui-d" width="115.9%" height="115.9%" x="-8%" y="-5.7%" filterUnits="objectBoundingBox"><feOffset dy=".5" in="SourceAlpha" result="shadowOffsetOuter1"/><feGaussianBlur in="shadowOffsetOuter1" result="shadowBlurOuter1" stdDeviation=".5"/><feColorMatrix in="shadowBlurOuter1" values="0 0 0 0 0 0 0 0 0 0 0 0 0 0 0 0 0 0 0.204257246 0"/></filter></defs><g fill="none" fill-rule="evenodd"><g fill-rule="nonzero"><use fill="#000" filter="url(#coqui-a)" xlink:href="#coqui-b"/><use fill="#71C800" fill-rule="evenodd" xlink:href="#coqui-b"/><use fill="url(#coqui-c)" fill-rule="evenodd" style="mix-blend-mode:soft-light" xlink:href="#coqui-b"/><circle cx="16" cy="15" r="14.5" stroke="#000" stroke-linejoin="square" stroke-opacity=".097"/></g><use fill="#000" filter="url(#coqui-d)" xlink:href="#coqui-e"/><use fill="#FFF" xlink:href="#coqui-e"/></g></svg>

<svg xmlns="http://www.w3.org/2000/svg" xmlns:xlink="http://www.w3.org/1999/xlink" width="32" height="32" viewBox="0 0 32 32"><defs><linearGradient id="c" x1="50%" x2="50%" y1="0%" y2="100%"><stop offset="0%" stop-color="#FFF" stop-opacity=".5"/><stop offset="100%" stop-opacity=".5"/></linearGradient><circle id="b" cx="16" cy="15" r="15"/><filter id="a" width="111.7%" height="111.7%" x="-5.8%" y="-4.2%" filterUnits="objectBoundingBox"><feOffset dy=".5" in="SourceAlpha" result="shadowOffsetOuter1"/><feGaussianBlur in="shadowOffsetOuter1" result="shadowBlurOuter1" stdDeviation=".5"/><feComposite in="shadowBlurOuter1" in2="SourceAlpha" operator="out" result="shadowBlurOuter1"/><feColorMatrix in="shadowBlurOuter1" values="0 0 0 0 0 0 0 0 0 0 0 0 0 0 0 0 0 0 0.199473505 0"/></filter><path id="e" d="M25.82 13.715c-.787.037-1.577.083-2.364.055-.706-.026-1.409-.143-2.113-.225a.409.409 0 0 1-.197-.092c-1.165-.955-2.31-1.932-3.314-3.063-.366-.413-.662-.859-.828-1.401-.223-.731-1.16-1.012-1.854-.589-.728.444-.853 1.477-.24 2.069a.901.901 0 0 0 .39.228c.53.128.94.444 1.327.802.694.641 1.316 1.35 1.92 2.076.173.207.085.447-.18.477-.41.048-.823.091-1.236.108-.778.032-1.557.063-2.336.055-.435-.005-.872-.072-1.303-.144a1.693 1.693 0 0 1-.573-.226c-.579-.347-1.179-.11-1.513.232a1.327 1.327 0 0 0-.201 1.588c.278.476.826.754 1.318.65.142-.03.282-.093.408-.166.33-.188.688-.276 1.058-.299.594-.036 1.192-.07 1.787-.056.757.018 1.514.085 2.271.132.103.007.207.012.309.028.284.046.366.273.178.496-.226.268-.444.545-.688.795a68.31 68.31 0 0 1-1.565 1.553 1.852 1.852 0 0 1-.863.466c-.656.157-.98.79-.888 1.43.092.636.66 1.114 1.303 1.115.596 0 1.054-.318 1.213-.888.163-.586.539-1.028.931-1.459.967-1.061 2.054-1.994 3.163-2.9a.472.472 0 0 1 .225-.1c.561-.073 1.122-.164 1.685-.199a18.66 18.66 0 0 1 1.907-.026c.663.027 1.323.114 2.003.177-.012.23-.015.426-.033.62-.122 1.26-.443 2.467-1.036 3.588-1.464 2.765-3.722 4.496-6.777 5.171a9.524 9.524 0 0 1-2.083.205c-.745-.001-1.49.006-2.235-.002-2.065-.022-3.954-.61-5.635-1.814-2.023-1.45-3.33-3.397-3.892-5.826a8.885 8.885 0 0 1-.224-1.652 43.836 43.836 0 0 1-.028-3.156 9.83 9.83 0 0 1 7.252-9.203 9.6 9.6 0 0 1 2.497-.338c.864-.003 1.727-.016 2.59.004 2.066.048 3.943.678 5.603 1.912 1.985 1.475 3.248 3.432 3.78 5.849.129.58.174 1.178.261 1.797-.43.055-.803.128-1.18.146z"/><filter id="d" width="115.9%" height="115.9%" x="-8%" y="-5.7%" filterUnits="objectBoundingBox"><feOffset dy=".5" in="SourceAlpha" result="shadowOffsetOuter1"/><feGaussianBlur in="shadowOffsetOuter1" result="shadowBlurOuter1" stdDeviation=".5"/><feColorMatrix in="shadowBlurOuter1" values="0 0 0 0 0 0 0 0 0 0 0 0 0 0 0 0 0 0 0.204257246 0"/></filter></defs><g fill="none" fill-rule="evenodd"><g fill-rule="nonzero"><use fill="#000" filter="url(#a)" xlink:href="#b"/><use fill="#71C800" fill-rule="evenodd" xlink:href="#b"/><use fill="url(#c)" fill-rule="evenodd" style="mix-blend-mode:soft-light" xlink:href="#b"/><circle cx="16" cy="15" r="14.5" stroke="#000" stroke-linejoin="square" stroke-opacity=".097"/></g><use fill="#000" filter="url(#d)" xlink:href="#e"/><use fill="#FFF" xlink:href="#e"/></g></svg>
